components/Common/Svg/svgs/pubnub.svg

<svg
  width="145"
  height="33"
  viewBox="0 0 145 33"
  fill="none"
  xmlns="http://www.w3.org/2000/svg"
>
  <path
    fill-rule="evenodd"
    clip-rule="evenodd"
    d="M51.0039 20.9884C51.0039 23.37 51.0101 25.7518 50.9961 28.1334C50.9944 28.4362 51.0972 28.557 51.3656 28.6555C52.7483 29.1629 54.1706 29.4874 55.6339 29.5948C56.6648 29.6703 57.6987 29.6648 58.7124 29.3933C60.6411 28.8768 61.7754 27.5519 62.2976 25.6651C63.06 22.9111 63.1295 20.1111 62.6735 17.2979C62.4828 16.1211 62.086 15.0166 61.2905 14.1054C60.1289 12.775 58.5997 12.3119 56.9186 12.2893C54.9966 12.2635 53.1403 12.6428 51.3436 13.3379C51.0888 13.4364 50.9946 13.5552 50.9962 13.8432C51.0097 16.2248 51.0039 18.6067 51.0039 20.9884ZM55.1893 33.0042C54.7317 32.9546 54.2739 32.9062 53.8165 32.8552C51.4223 32.5878 49.0825 32.0839 46.8193 31.2304C46.5076 31.1128 46.4138 30.9524 46.4141 30.6178C46.4237 20.5611 46.4219 10.5044 46.4219 0.447751C46.4219 0.307298 46.4219 0.166845 46.4219 0C47.943 0 49.4454 0 50.9943 0C50.9943 3.42776 50.9943 6.8616 50.9943 10.3596C51.2696 10.2601 51.4852 10.184 51.6994 10.1045C53.9456 9.27138 56.2544 8.84224 58.6545 8.94781C62.449 9.11479 65.2789 11.1864 66.6279 14.793C67.2456 16.4443 67.4841 18.1605 67.5124 19.9136C67.5468 22.0418 67.3912 24.1488 66.8237 26.2112C65.8154 29.8751 63.4281 31.9953 59.7848 32.7059C59.2283 32.8144 58.6595 32.8569 58.097 32.9341C58.0089 32.9461 57.9237 32.9803 57.8373 33.0042C56.9546 33.0042 56.072 33.0042 55.1893 33.0042V33.0042Z"
    fill="#6A6A6A"
  ></path>
  <path
    fill-rule="evenodd"
    clip-rule="evenodd"
    d="M128.476 20.9735C128.476 23.379 128.478 25.7845 128.473 28.19C128.472 28.3955 128.494 28.5322 128.722 28.6161C130.697 29.3406 132.726 29.7306 134.829 29.6074C136.057 29.5354 137.205 29.1961 138.166 28.3617C139.067 27.578 139.557 26.541 139.844 25.4081C140.51 22.7828 140.584 20.1209 140.178 17.4497C140.001 16.2881 139.635 15.1795 138.883 14.2509C137.724 12.8192 136.15 12.3156 134.402 12.2896C132.469 12.2608 130.6 12.6406 128.793 13.3477C128.547 13.4442 128.468 13.5599 128.469 13.8278C128.481 16.2096 128.476 18.5916 128.476 20.9735ZM132.674 33.0042C132.216 32.9548 131.759 32.9062 131.301 32.8556C128.907 32.5911 126.568 32.0854 124.305 31.2331C123.999 31.1181 123.89 30.9664 123.891 30.6236C123.901 20.5555 123.899 10.4873 123.899 0.41913C123.899 0.289998 123.899 0.160796 123.899 0.00244141C125.419 0.00244141 126.921 0.00244141 128.467 0.00244141C128.467 3.42235 128.467 6.85669 128.467 10.357C128.782 10.2455 129.039 10.1568 129.295 10.0628C131.5 9.25316 133.767 8.84029 136.118 8.9489C139.986 9.12778 142.809 11.2216 144.151 14.9128C144.891 16.9489 145.05 19.0665 144.987 21.2094C144.93 23.0854 144.72 24.9401 144.138 26.7375C143.086 29.9889 140.862 31.9002 137.613 32.6284C136.937 32.7801 136.239 32.8342 135.551 32.9359C135.451 32.9508 135.352 32.9811 135.252 33.0042C134.393 33.0042 133.533 33.0042 132.674 33.0042V33.0042Z"
    fill="#6A6A6A"
  ></path>
  <path
    fill-rule="evenodd"
    clip-rule="evenodd"
    d="M4.59766 15.5947C4.69221 15.6016 4.74908 15.6095 4.80587 15.6095C6.57084 15.6096 8.33652 15.6364 10.1006 15.5951C10.837 15.5779 11.5827 15.4722 12.3021 15.3073C13.7945 14.9654 14.8999 14.1361 15.3086 12.5545C15.6433 11.2591 15.6892 9.94771 15.4513 8.63233C15.1709 7.08247 14.2921 6.03802 12.7746 5.67207C11.8676 5.45336 10.9263 5.31396 9.9953 5.27958C8.32537 5.21788 6.65167 5.26182 4.97951 5.26288C4.85639 5.26295 4.73319 5.27328 4.59766 5.27936C4.59766 8.73182 4.59766 12.1471 4.59766 15.5947ZM0 1.87088C0.149677 1.88043 0.299284 1.89833 0.448962 1.8984C3.82687 1.90003 7.20485 1.88454 10.5826 1.90626C12.1857 1.91652 13.7738 2.08683 15.3181 2.57569C18.1037 3.45761 19.7453 5.49365 20.0663 8.44096C20.2335 9.97576 20.2116 11.497 19.8956 13.0078C19.3326 15.6998 17.6741 17.383 15.1619 18.271C13.7446 18.772 12.2753 18.9609 10.7852 18.9766C8.87011 18.9967 6.95469 18.9814 5.03934 18.9814C4.90276 18.9814 4.76611 18.9814 4.59038 18.9814C4.59038 23.4737 4.59038 27.9333 4.59038 32.438C3.0341 32.438 1.51705 32.438 0 32.438C0 22.2489 0 12.0599 0 1.87088V1.87088Z"
    fill="#6A6A6A"
  ></path>
  <path
    fill-rule="evenodd"
    clip-rule="evenodd"
    d="M31.2164 33.0042C30.6564 32.9303 30.0945 32.8684 29.5367 32.78C28.2079 32.5695 26.939 32.1739 25.7857 31.4529C23.9925 30.3318 23.0763 28.6609 22.8695 26.5668C22.8106 25.9702 22.8009 25.3669 22.8003 24.7666C22.7951 19.8141 22.7974 14.8616 22.7974 9.90907C22.7974 9.77018 22.7974 9.63121 22.7974 9.46988C24.3303 9.46988 25.8326 9.46988 27.3789 9.46988C27.3789 9.63128 27.3789 9.78058 27.3789 9.92988C27.3789 14.3753 27.3737 18.8208 27.3826 23.2663C27.3849 24.3755 27.4788 25.4796 27.8038 26.548C28.3401 28.311 29.5414 29.3146 31.319 29.5295C33.4979 29.7928 35.646 29.5341 37.7584 28.9393C38.0586 28.8548 38.1505 28.7103 38.1501 28.3961C38.1409 22.2409 38.1432 16.0856 38.1432 9.93037C38.1432 9.7803 38.1432 9.63029 38.1432 9.46429C39.6831 9.46429 41.1761 9.46429 42.7236 9.46429C42.7236 9.62711 42.7236 9.77534 42.7236 9.92351C42.7236 16.9278 42.7212 23.9321 42.731 30.9363C42.7314 31.276 42.6411 31.4204 42.3066 31.5129C39.6247 32.2544 36.9029 32.7488 34.1291 32.9436C34.0399 32.9498 33.9525 32.9834 33.8643 33.0042C32.9817 33.0042 32.0991 33.0042 31.2164 33.0042"
    fill="#6A6A6A"
  ></path>
  <path
    fill-rule="evenodd"
    clip-rule="evenodd"
    d="M108.705 33.0039C108.144 32.9302 107.583 32.8672 107.025 32.7807C105.718 32.578 104.47 32.1892 103.331 31.4942C101.515 30.3864 100.573 28.7187 100.357 26.6088C100.3 26.0595 100.289 25.5035 100.288 24.9505C100.284 19.9387 100.286 14.9269 100.286 9.91503C100.286 9.77557 100.286 9.6361 100.286 9.47181C101.814 9.47181 103.317 9.47181 104.867 9.47181C104.867 9.62613 104.867 9.77486 104.867 9.92359C104.867 14.4519 104.862 18.9802 104.871 23.5085C104.873 24.5712 104.992 25.6242 105.318 26.6431C105.874 28.3766 107.087 29.3244 108.829 29.5335C110.962 29.7893 113.065 29.5236 115.138 28.9779C115.507 28.8806 115.643 28.7075 115.642 28.2965C115.627 22.1762 115.632 16.0558 115.632 9.93555C115.632 9.7854 115.632 9.63533 115.632 9.46622C117.168 9.46622 118.661 9.46622 120.19 9.46622C120.197 9.59797 120.211 9.72264 120.211 9.84732C120.212 16.8993 120.21 23.9511 120.218 31.0031C120.219 31.291 120.135 31.413 119.862 31.4894C117.171 32.2421 114.438 32.7428 111.652 32.9394C111.551 32.9465 111.452 32.9818 111.353 33.0039C110.47 33.0039 109.587 33.0039 108.705 33.0039"
    fill="#6A6A6A"
  ></path>
  <path
    fill-rule="evenodd"
    clip-rule="evenodd"
    d="M95.8509 32.4329C94.4057 32.4329 93.0016 32.4329 91.5968 32.4329C90.7955 32.4329 89.9941 32.4216 89.1935 32.4392C88.9287 32.4451 88.7803 32.371 88.6541 32.1226C86.795 28.4601 84.9254 24.8027 83.0573 21.1449C80.5055 16.1495 77.9524 11.1548 75.3992 6.16025C75.3539 6.07201 75.2975 5.98972 75.1839 5.92116C75.1839 14.7427 75.1839 23.5644 75.1839 32.4094C73.83 32.4094 72.513 32.4094 71.1758 32.4094C71.1758 22.2521 71.1758 12.1051 71.1758 1.91991C71.2824 1.91333 71.3939 1.90052 71.5061 1.90045C73.5958 1.89925 75.6863 1.90328 77.7761 1.89451C78.0165 1.89352 78.1412 1.96697 78.2555 2.1907C82.697 10.8853 87.1469 19.5758 91.5961 28.2665C91.6428 28.357 91.6965 28.4439 91.8149 28.5194C91.8149 19.6654 91.8149 10.8113 91.8149 1.92847C93.187 1.92847 94.513 1.92847 95.8509 1.92847C95.8509 12.0956 95.8509 22.2425 95.8509 32.4329"
    fill="#6A6A6A"
  ></path>
</svg>

<svg width="145" height="33" viewBox="0 0 145 33" fill="none" xmlns="http://www.w3.org/2000/svg"><path fill-rule="evenodd" clip-rule="evenodd" d="M51.004 20.988c0 2.382.006 4.764-.008 7.145-.002.303.101.424.37.523 1.382.507 2.805.831 4.268.939 1.03.075 2.065.07 3.078-.202 1.93-.516 3.063-1.841 3.586-3.728.762-2.754.831-5.554.375-8.367-.19-1.177-.587-2.281-1.383-3.193-1.161-1.33-2.69-1.793-4.371-1.816-1.922-.025-3.779.354-5.575 1.049-.255.098-.35.217-.348.505.014 2.382.008 4.764.008 7.145Zm4.185 12.016c-.457-.05-.915-.098-1.373-.149-2.394-.267-4.733-.771-6.997-1.625-.311-.117-.405-.278-.405-.612.01-10.057.008-20.114.008-30.17V0h4.572v10.36c.276-.1.491-.176.705-.255 2.247-.834 4.555-1.263 6.956-1.157 3.794.167 6.624 2.238 7.973 5.845.618 1.651.856 3.367.884 5.12.035 2.129-.12 4.236-.688 6.298-1.009 3.664-3.396 5.784-7.04 6.495-.556.108-1.124.15-1.687.228-.088.012-.173.046-.26.07H55.19ZM128.476 20.974c0 2.405.002 4.81-.003 7.216-.001.205.021.342.249.426 1.975.725 4.004 1.115 6.107.991 1.228-.072 2.376-.41 3.337-1.245.901-.784 1.391-1.821 1.678-2.954.666-2.625.74-5.287.334-7.958-.177-1.162-.543-2.27-1.295-3.2-1.159-1.43-2.733-1.934-4.481-1.96-1.933-.03-3.802.35-5.609 1.058-.246.096-.325.212-.324.48.012 2.382.007 4.764.007 7.146Zm4.198 12.03-1.373-.148c-2.394-.265-4.733-.77-6.996-1.623-.306-.115-.415-.267-.414-.61.01-10.068.008-20.136.008-30.204V.002h4.568v10.355c.315-.111.572-.2.828-.294 2.205-.81 4.472-1.223 6.823-1.114 3.868.179 6.691 2.273 8.033 5.964.74 2.036.899 4.154.836 6.296-.057 1.876-.267 3.731-.849 5.529-1.052 3.25-3.276 5.162-6.525 5.89-.676.152-1.374.206-2.062.308-.1.015-.199.045-.299.068h-2.578ZM4.598 15.595c.094.007.151.014.208.014 1.765 0 3.53.027 5.295-.014a11.081 11.081 0 0 0 2.201-.288c1.492-.342 2.598-1.17 3.007-2.752a9.07 9.07 0 0 0 .142-3.923c-.28-1.55-1.159-2.594-2.676-2.96a14.164 14.164 0 0 0-2.78-.392c-1.67-.062-3.343-.018-5.015-.017-.124 0-.247.01-.382.016v10.316ZM0 1.87c.15.01.3.027.449.027 3.378.002 6.756-.013 10.134.008 1.603.01 3.19.18 4.735.67 2.786.882 4.427 2.918 4.748 5.865.168 1.535.146 3.056-.17 4.567-.563 2.692-2.222 4.375-4.734 5.263-1.417.501-2.887.69-4.377.706-1.915.02-3.83.004-5.746.004H4.59v13.457H0V1.871ZM31.216 33.004c-.56-.074-1.122-.136-1.68-.224-1.328-.21-2.597-.606-3.75-1.327-1.794-1.121-2.71-2.792-2.917-4.886-.058-.597-.068-1.2-.069-1.8-.005-4.953-.003-9.905-.003-14.858v-.44h4.582v.46c0 4.446-.005 8.892.004 13.337.002 1.11.096 2.214.42 3.282.537 1.763 1.738 2.767 3.516 2.982 2.179.263 4.327.004 6.44-.59.3-.085.392-.23.391-.544-.01-6.155-.007-12.31-.007-18.466v-.466h4.58v.46c0 7.004-.002 14.008.008 21.012 0 .34-.09.484-.424.577-2.682.741-5.404 1.236-8.178 1.43-.09.007-.176.04-.265.061h-2.648M108.705 33.004c-.561-.074-1.122-.137-1.68-.223-1.307-.203-2.555-.592-3.694-1.287-1.816-1.108-2.758-2.775-2.974-4.885a16.377 16.377 0 0 1-.069-1.659c-.004-5.011-.002-10.023-.002-15.035v-.443h4.581v.452c0 4.528-.005 9.056.004 13.585.002 1.062.121 2.115.447 3.134.556 1.734 1.769 2.681 3.511 2.89 2.133.256 4.236-.01 6.309-.555.369-.097.505-.27.504-.681-.015-6.12-.01-12.241-.01-18.361v-.47h4.558c.007.132.021.257.021.381.001 7.052-.001 14.104.007 21.156.001.288-.083.41-.356.486-2.691.753-5.424 1.254-8.21 1.45-.101.008-.2.043-.299.065h-2.648M95.85 32.433h-4.253c-.801 0-1.603-.011-2.403.006-.265.006-.414-.068-.54-.316-1.859-3.663-3.729-7.32-5.597-10.978L75.4 6.16a.55.55 0 0 0-.215-.239V32.41h-4.008V1.92c.106-.006.218-.018.33-.019 2.09 0 4.18.003 6.27-.005.24-.001.365.072.48.296 4.441 8.694 8.89 17.385 13.34 26.076.047.09.1.177.219.252V1.93h4.036v30.504" fill="#6A6A6A"/></svg>
